public/logos/OK.svg

<?xml version="1.0" encoding="UTF-8"?>
<svg xmlns="http://www.w3.org/2000/svg" xmlns:xlink="http://www.w3.org/1999/xlink" width="176pt" height="58.44pt" viewBox="0 0 176 58.44" version="1.1">
<defs>
<clipPath id="clip1">
  <path d="M 0 0 L 58 0 L 58 58.441406 L 0 58.441406 Z M 0 0 "/>
</clipPath>
<clipPath id="clip2">
  <path d="M 57 40 L 176 40 L 176 58.441406 L 57 58.441406 Z M 57 40 "/>
</clipPath>
</defs>
<g id="surface1">
<g clip-path="url(#clip1)" clip-rule="nonzero">
<path style=" stroke:none;fill-rule:evenodd;fill:rgb(92.919922%,10.977173%,14.115906%);fill-opacity:1;" d="M 33.507812 36.332031 L 22.671875 36.332031 L 23.542969 32.648438 L 30.511719 32.648438 C 32.894531 32.660156 34.050781 30.570312 32.351562 29.40625 C 30.679688 28.242188 29.597656 27.3125 27.941406 26.132812 C 24.585938 23.753906 26.167969 18.210938 31.792969 18.179688 L 42.011719 18.179688 L 41.121094 21.808594 L 34.265625 21.808594 C 32.382812 21.777344 31.96875 23.851562 33.191406 24.609375 L 37.578125 27.867188 C 41.199219 30.597656 39.074219 36.324219 33.507812 36.332031 Z M 45.957031 56.136719 C 44.859375 58.167969 42.269531 59.015625 40.1875 58.027344 C 29.09375 52.742188 19.3125 45.339844 11.1875 36.332031 L 21.320312 36.332031 L 22.226562 32.675781 L 15.820312 32.675781 C 15.636719 32.671875 15.453125 32.679688 15.273438 32.660156 C 14.308594 32.53125 13.746094 32.128906 13.429688 31.636719 C 13.113281 31.144531 13.019531 30.589844 13.089844 30.144531 C 13.097656 30.03125 13.429688 28.632812 13.453125 28.515625 L 13.460938 28.480469 L 14.414062 24.65625 L 14.417969 24.65625 C 14.839844 22.886719 16.320312 21.828125 18.292969 21.777344 L 24.859375 21.777344 L 25.734375 18.152344 L 21.21875 18.152344 L 15.535156 20.28125 L 16.082031 18.152344 L 15.277344 18.152344 C 13.453125 18.128906 12.179688 18.292969 11.285156 18.710938 C 10.476562 19.085938 9.867188 19.703125 9.613281 20.628906 L 6.992188 31.359375 C 4.710938 28.460938 2.613281 25.464844 0.65625 22.300781 C -0.554688 20.355469 -0.0546875 17.667969 1.878906 16.351562 C 16.820312 6.160156 34.488281 0.421875 52.574219 0 C 54.917969 -0.0546875 56.902344 1.785156 57.097656 4.105469 C 57.480469 8.808594 57.488281 13.527344 57.132812 18.214844 L 47.484375 18.210938 L 38.335938 36.292969 L 45.019531 36.292969 L 46.097656 33.886719 C 46.203125 33.644531 46.3125 33.566406 46.628906 33.574219 L 51.421875 33.570312 C 51.515625 33.566406 51.714844 33.605469 51.722656 33.839844 L 51.785156 36.292969 L 53.953125 36.292969 C 52.039062 43.167969 49.351562 49.835938 45.957031 56.136719 Z M 51.609375 30.296875 L 51.390625 22.898438 C 51.382812 22.636719 51.160156 22.621094 51.046875 22.878906 L 47.679688 30.351562 C 47.539062 30.640625 47.625 30.925781 47.878906 30.902344 L 51.257812 30.902344 C 51.546875 30.886719 51.640625 30.652344 51.609375 30.296875 "/>
</g>
<path style=" stroke:none;fill-rule:evenodd;fill:rgb(15.312195%,33.776855%,63.388062%);fill-opacity:1;" d="M 104.222656 20.8125 C 103.511719 20.8125 102.902344 20.925781 102.398438 21.144531 C 101.910156 21.359375 101.515625 21.683594 101.222656 22.113281 L 101.222656 22.117188 L 101.214844 22.121094 C 101.136719 22.238281 101.054688 22.375 100.980469 22.519531 C 100.90625 22.671875 100.835938 22.835938 100.777344 23 C 100.597656 23.488281 100.46875 24.695312 100.386719 25.945312 L 110.648438 25.945312 L 110.648438 28.605469 L 100.28125 28.605469 C 100.277344 28.699219 100.277344 28.792969 100.277344 28.878906 C 100.277344 29.8125 100.355469 30.605469 100.507812 31.253906 C 100.65625 31.878906 100.875 32.367188 101.15625 32.71875 C 101.160156 32.71875 101.160156 32.71875 101.160156 32.71875 C 101.441406 33.058594 101.828125 33.320312 102.320312 33.492188 C 102.835938 33.671875 103.472656 33.765625 104.222656 33.765625 L 110.648438 33.765625 L 110.648438 36.421875 L 104.011719 36.421875 C 103.324219 36.421875 102.703125 36.390625 102.148438 36.332031 C 102.066406 36.324219 101.972656 36.3125 101.882812 36.300781 C 101.4375 36.242188 101.035156 36.160156 100.695312 36.058594 L 100.683594 36.054688 C 100.574219 36.023438 100.457031 35.984375 100.335938 35.941406 C 100.222656 35.898438 100.109375 35.855469 99.996094 35.808594 C 99.421875 35.558594 98.875 35.226562 98.351562 34.804688 C 97.871094 34.425781 97.460938 33.988281 97.101562 33.492188 C 96.746094 33.003906 96.453125 32.453125 96.21875 31.851562 L 96.214844 31.839844 L 96.210938 31.839844 C 96.144531 31.667969 96.082031 31.496094 96.027344 31.324219 C 95.972656 31.152344 95.921875 30.972656 95.875 30.777344 C 95.636719 29.835938 95.515625 28.773438 95.515625 27.597656 C 95.515625 26.015625 95.6875 24.632812 96.035156 23.453125 C 96.386719 22.25 96.917969 21.265625 97.625 20.484375 L 97.632812 20.476562 C 97.828125 20.261719 98.046875 20.058594 98.28125 19.867188 C 98.515625 19.675781 98.757812 19.503906 99.015625 19.347656 C 100.339844 18.550781 102.050781 18.148438 104.148438 18.148438 L 110.648438 18.148438 L 110.648438 20.8125 Z M 133.558594 18.519531 L 133.558594 25.945312 L 139.601562 25.945312 L 139.601562 18.148438 L 144.019531 18.148438 L 144.019531 36.421875 L 139.601562 36.421875 L 139.601562 28.605469 L 133.558594 28.605469 L 133.558594 36.421875 L 129.144531 36.421875 L 129.144531 18.148438 L 133.558594 18.148438 Z M 84.109375 33.765625 L 94.171875 33.765625 L 94.171875 36.421875 L 78.632812 36.421875 L 78.632812 33.605469 L 89.199219 20.8125 L 78.632812 20.8125 L 78.632812 18.148438 L 94.171875 18.148438 L 94.171875 21 Z M 70.644531 20.8125 C 69.929688 20.8125 69.320312 20.925781 68.820312 21.144531 C 68.332031 21.359375 67.9375 21.683594 67.640625 22.113281 L 67.640625 22.117188 L 67.636719 22.121094 C 67.554688 22.238281 67.476562 22.375 67.402344 22.519531 C 67.328125 22.671875 67.257812 22.835938 67.199219 23 C 66.867188 23.910156 66.699219 27.328125 66.699219 28.878906 C 66.699219 29.8125 66.777344 30.605469 66.929688 31.253906 C 67.078125 31.878906 67.292969 32.367188 67.582031 32.71875 C 67.859375 33.058594 68.25 33.320312 68.742188 33.492188 C 69.257812 33.671875 69.894531 33.765625 70.644531 33.765625 L 77.070312 33.765625 L 77.070312 36.421875 L 70.433594 36.421875 C 69.746094 36.421875 69.125 36.390625 68.570312 36.332031 C 68.484375 36.324219 68.394531 36.3125 68.304688 36.300781 C 67.855469 36.242188 67.460938 36.160156 67.113281 36.058594 L 67.105469 36.054688 C 66.992188 36.023438 66.875 35.984375 66.757812 35.941406 C 66.644531 35.898438 66.53125 35.855469 66.417969 35.808594 L 66.417969 35.804688 C 65.84375 35.558594 65.292969 35.226562 64.769531 34.804688 C 64.292969 34.425781 63.878906 33.988281 63.523438 33.492188 C 63.167969 33.003906 62.871094 32.453125 62.636719 31.851562 L 62.632812 31.839844 C 62.566406 31.667969 62.5 31.496094 62.449219 31.324219 C 62.394531 31.152344 62.34375 30.972656 62.292969 30.777344 C 62.054688 29.835938 61.933594 28.773438 61.933594 27.597656 C 61.933594 26.015625 62.109375 24.632812 62.453125 23.453125 C 62.808594 22.25 63.339844 21.265625 64.046875 20.484375 L 64.050781 20.476562 C 64.246094 20.261719 64.464844 20.058594 64.703125 19.867188 C 64.933594 19.675781 65.179688 19.503906 65.4375 19.347656 C 66.761719 18.550781 68.472656 18.148438 70.570312 18.148438 L 77.070312 18.148438 L 77.070312 20.8125 Z M 120.742188 20.8125 C 120.027344 20.8125 119.417969 20.925781 118.917969 21.144531 C 118.429688 21.359375 118.035156 21.683594 117.738281 22.113281 L 117.738281 22.117188 L 117.730469 22.121094 C 117.652344 22.238281 117.574219 22.375 117.5 22.519531 C 117.425781 22.671875 117.355469 22.835938 117.292969 23 C 116.964844 23.910156 116.796875 27.328125 116.796875 28.878906 C 116.796875 29.8125 116.875 30.605469 117.027344 31.253906 C 117.175781 31.878906 117.390625 32.367188 117.675781 32.71875 L 117.679688 32.71875 C 117.960938 33.058594 118.347656 33.320312 118.839844 33.492188 C 119.355469 33.671875 119.988281 33.765625 120.742188 33.765625 L 127.167969 33.765625 L 127.167969 36.421875 L 120.53125 36.421875 C 119.839844 36.421875 119.222656 36.390625 118.664062 36.332031 C 118.578125 36.324219 118.496094 36.3125 118.402344 36.300781 C 117.953125 36.242188 117.554688 36.160156 117.214844 36.058594 L 117.210938 36.058594 L 117.203125 36.054688 C 117.089844 36.023438 116.972656 35.984375 116.855469 35.941406 C 116.742188 35.898438 116.628906 35.855469 116.515625 35.808594 C 115.941406 35.558594 115.390625 35.226562 114.867188 34.804688 C 114.394531 34.425781 113.976562 33.988281 113.621094 33.492188 C 113.265625 33.003906 112.96875 32.453125 112.734375 31.851562 L 112.730469 31.839844 C 112.660156 31.667969 112.601562 31.496094 112.546875 31.324219 C 112.492188 31.152344 112.4375 30.972656 112.390625 30.777344 C 112.152344 29.835938 112.035156 28.773438 112.035156 27.597656 C 112.035156 26.015625 112.207031 24.632812 112.554688 23.453125 C 112.90625 22.25 113.4375 21.265625 114.144531 20.484375 L 114.148438 20.476562 C 114.347656 20.261719 114.5625 20.058594 114.796875 19.867188 C 115.03125 19.675781 115.277344 19.503906 115.535156 19.347656 C 116.859375 18.550781 118.570312 18.148438 120.664062 18.148438 L 127.167969 18.148438 L 127.167969 20.8125 L 120.742188 20.8125 "/>
<g clip-path="url(#clip2)" clip-rule="nonzero">
<path style=" stroke:none;fill-rule:evenodd;fill:rgb(15.312195%,33.776855%,63.388062%);fill-opacity:1;" d="M 85.476562 40.167969 L 94.550781 40.167969 C 95.644531 40.167969 96.59375 40.277344 97.398438 40.496094 C 98.226562 40.722656 98.90625 41.066406 99.441406 41.523438 L 99.453125 41.535156 C 99.601562 41.664062 99.742188 41.808594 99.875 41.957031 C 100.003906 42.109375 100.125 42.273438 100.230469 42.445312 C 100.777344 43.3125 101.054688 44.433594 101.054688 45.804688 C 101.054688 46.507812 100.96875 47.152344 100.808594 47.730469 C 100.644531 48.320312 100.398438 48.847656 100.070312 49.308594 L 100.0625 49.316406 C 99.964844 49.457031 99.863281 49.582031 99.765625 49.6875 C 99.667969 49.800781 99.550781 49.910156 99.433594 50.019531 L 99.4375 50.019531 C 98.957031 50.449219 98.378906 50.765625 97.707031 50.972656 L 101.832031 57.886719 L 102.164062 58.441406 L 97.160156 58.441406 L 97.054688 58.253906 L 93.289062 51.539062 L 89.523438 51.539062 L 89.523438 58.441406 L 85.105469 58.441406 L 85.105469 40.167969 Z M 93.679688 42.828125 L 89.523438 42.828125 L 89.523438 48.898438 L 93.679688 48.898438 C 94.828125 48.898438 95.613281 48.660156 96.027344 48.183594 C 96.027344 48.183594 96.027344 48.183594 96.03125 48.179688 L 96.027344 48.179688 C 96.082031 48.117188 96.128906 48.054688 96.167969 47.988281 C 96.210938 47.921875 96.25 47.847656 96.289062 47.761719 L 96.292969 47.761719 C 96.488281 47.3125 96.585938 46.675781 96.585938 45.851562 C 96.585938 44.726562 96.40625 43.953125 96.042969 43.53125 C 95.855469 43.304688 95.566406 43.136719 95.195312 43.015625 C 94.789062 42.890625 94.285156 42.828125 93.679688 42.828125 Z M 166.433594 43.011719 C 164.621094 43.011719 163.097656 43.792969 163.125 45.628906 C 163.136719 46.496094 163.609375 47.933594 165.679688 47.960938 L 170.050781 47.960938 C 171.070312 47.960938 172.117188 48.050781 173.089844 48.371094 C 173.699219 48.570312 174.199219 48.847656 174.59375 49.199219 C 175.804688 50.28125 176 51.167969 176 52.824219 L 176 52.832031 C 175.996094 54.398438 175.625 56.019531 174.390625 57.078125 C 173.339844 57.984375 171.707031 58.441406 169.5 58.441406 L 159.316406 58.441406 C 159.316406 57.152344 159.316406 56.90625 159.316406 55.617188 L 168.640625 55.617188 C 170.6875 55.617188 171.441406 54.257812 171.488281 53.324219 C 171.550781 52.085938 171.019531 50.621094 168.929688 50.621094 L 164.808594 50.621094 C 163.21875 50.621094 161.394531 50.402344 160.144531 49.324219 L 160.140625 49.324219 L 160.128906 49.3125 C 159.1875 48.492188 158.609375 47.144531 158.609375 45.902344 C 158.609375 44.316406 158.964844 42.632812 160.210938 41.542969 C 161.523438 40.394531 163.457031 40.167969 165.136719 40.167969 L 175.152344 40.167969 C 175.152344 41.453125 175.152344 41.730469 175.152344 43.011719 Z M 124.421875 40.167969 L 129.300781 40.167969 L 129.40625 40.351562 L 135.886719 51.722656 L 135.726562 40.535156 L 135.722656 40.167969 L 140.230469 40.167969 L 140.230469 58.441406 L 135.371094 58.441406 L 135.261719 58.253906 L 128.421875 46.210938 L 128.574219 58.070312 L 128.578125 58.441406 L 124.058594 58.441406 L 124.058594 40.167969 Z M 121.273438 58.441406 L 117.054688 58.441406 L 117.054688 40.167969 L 121.640625 40.167969 L 121.640625 58.441406 Z M 106.976562 58 C 106.972656 58 106.972656 58 106.96875 58 C 106.96875 57.996094 106.96875 57.996094 106.96875 57.996094 Z M 106.996094 58.007812 Z M 110.730469 58.441406 C 109.910156 58.441406 109.191406 58.402344 108.570312 58.332031 C 108.472656 58.320312 108.371094 58.308594 108.273438 58.292969 L 108.269531 58.292969 C 107.707031 58.214844 107.15625 58.09375 106.632812 57.867188 C 106.515625 57.820312 106.402344 57.765625 106.289062 57.707031 C 105.5 57.296875 104.769531 56.644531 104.230469 55.917969 C 103.859375 55.421875 103.582031 54.878906 103.398438 54.292969 C 103.273438 53.886719 103.175781 53.40625 103.113281 52.84375 C 103.054688 52.292969 103.023438 51.664062 103.023438 50.964844 L 103.023438 40.167969 L 107.4375 40.167969 L 107.4375 51.820312 C 107.4375 52.320312 107.453125 52.75 107.472656 53.113281 C 107.546875 54.296875 107.921875 55.136719 109.089844 55.539062 C 109.71875 55.753906 110.425781 55.78125 111.082031 55.78125 L 115.792969 55.777344 C 115.792969 56.667969 115.792969 57.550781 115.792969 58.441406 Z M 99.765625 49.6875 Z M 82.269531 58.441406 L 78.050781 58.441406 L 78.050781 40.167969 L 82.632812 40.167969 L 82.632812 58.441406 Z M 65.316406 40.167969 L 69.46875 40.167969 L 69.5625 40.386719 L 77.046875 57.933594 L 77.261719 58.441406 L 72.355469 58.441406 L 72.265625 58.203125 L 70.363281 53.277344 L 63.992188 53.277344 L 62.148438 58.203125 L 62.054688 58.441406 L 57.34375 58.441406 L 57.558594 57.933594 L 64.984375 40.390625 L 65.078125 40.167969 Z M 67.136719 45.023438 L 65.011719 50.621094 L 69.335938 50.609375 Z M 150.664062 42.828125 C 149.953125 42.828125 149.339844 42.9375 148.835938 43.160156 C 148.355469 43.375 147.960938 43.699219 147.664062 44.125 L 147.664062 44.128906 L 147.65625 44.136719 C 147.574219 44.253906 147.492188 44.386719 147.421875 44.535156 C 147.34375 44.6875 147.277344 44.847656 147.214844 45.015625 C 147.039062 45.503906 146.910156 46.707031 146.828125 47.960938 L 157.089844 47.960938 L 157.089844 50.621094 L 146.71875 50.621094 C 146.71875 50.714844 146.71875 50.804688 146.71875 50.894531 C 146.71875 51.828125 146.796875 52.621094 146.945312 53.269531 C 147.097656 53.894531 147.316406 54.382812 147.601562 54.734375 C 147.882812 55.074219 148.265625 55.332031 148.761719 55.507812 C 149.277344 55.6875 149.910156 55.78125 150.660156 55.78125 L 157.089844 55.777344 L 157.089844 58.441406 L 150.453125 58.441406 C 149.765625 58.441406 149.140625 58.40625 148.589844 58.347656 C 148.507812 58.335938 148.414062 58.328125 148.324219 58.3125 C 147.875 58.253906 147.476562 58.175781 147.136719 58.074219 L 147.132812 58.070312 L 147.121094 58.070312 C 147.011719 58.035156 146.894531 57.996094 146.777344 57.953125 C 146.664062 57.914062 146.550781 57.867188 146.4375 57.820312 C 145.863281 57.574219 145.3125 57.238281 144.789062 56.820312 C 144.789062 56.816406 144.789062 56.816406 144.789062 56.816406 C 144.316406 56.441406 143.898438 56.003906 143.542969 55.511719 C 143.1875 55.015625 142.894531 54.46875 142.65625 53.867188 L 142.652344 53.851562 C 142.585938 53.679688 142.519531 53.507812 142.46875 53.339844 C 142.414062 53.167969 142.363281 52.984375 142.3125 52.792969 C 142.074219 51.847656 141.957031 50.785156 141.957031 49.613281 C 141.957031 48.03125 142.128906 46.648438 142.472656 45.464844 C 142.828125 44.265625 143.359375 43.273438 144.066406 42.496094 L 144.070312 42.492188 C 144.269531 42.277344 144.484375 42.074219 144.71875 41.882812 C 144.953125 41.691406 145.199219 41.519531 145.457031 41.359375 C 146.78125 40.5625 148.488281 40.167969 150.589844 40.167969 L 157.089844 40.167969 L 157.089844 42.828125 L 150.664062 42.828125 "/>
</g>
</g>
</svg>

<svg xmlns="http://www.w3.org/2000/svg" width="176pt" height="77.92" viewBox="0 0 176 58.44"><defs><clipPath id="a"><path d="M0 0h58v58.441H0Zm0 0"/></clipPath><clipPath id="b"><path d="M57 40h119v18.441H57Zm0 0"/></clipPath></defs><g clip-path="url(#a)"><path d="M33.508 36.332H22.672l.871-3.684h6.969c2.383.012 3.539-2.078 1.84-3.242-1.672-1.164-2.754-2.093-4.41-3.273-3.356-2.38-1.774-7.922 3.851-7.953h10.219l-.89 3.629h-6.856c-1.883-.032-2.297 2.043-1.075 2.8l4.387 3.258c3.621 2.73 1.496 8.457-4.07 8.465m12.449 19.805c-1.098 2.031-3.687 2.879-5.77 1.89-11.093-5.285-20.874-12.687-29-21.695H21.32l.907-3.656H15.82c-.183-.004-.367.004-.547-.016-.964-.129-1.527-.531-1.843-1.023s-.41-1.047-.34-1.492c.008-.114.34-1.512.363-1.63l.008-.035.953-3.824h.004c.422-1.77 1.902-2.828 3.875-2.879h6.566l.875-3.625H21.22l-5.684 2.13.547-2.13h-.805c-1.824-.023-3.097.141-3.992.559-.808.375-1.418.992-1.672 1.918l-2.62 10.73a98 98 0 0 1-6.337-9.058c-1.21-1.946-.71-4.633 1.223-5.95C16.82 6.162 34.489.422 52.574 0c2.344-.055 4.328 1.785 4.524 4.105.382 4.704.39 9.422.035 14.11l-9.649-.004-9.148 18.082h6.684l1.078-2.406c.105-.242.215-.32.53-.313l4.794-.004c.094-.004.293.035.3.27l.063 2.453h2.168a96.4 96.4 0 0 1-7.996 19.844m5.652-25.84-.218-7.399c-.008-.261-.23-.277-.344-.02l-3.367 7.474c-.14.289-.055.574.199.55h3.379c.289-.015.383-.25.351-.605" style="stroke:none;fill-rule:evenodd;fill:#ed1c24;fill-opacity:1"/></g><path d="M104.223 20.813q-1.067.002-1.825.332-.734.323-1.175.968v.004l-.008.004c-.078.117-.16.254-.235.399a5 5 0 0 0-.203.48c-.18.488-.308 1.695-.39 2.945h10.261v2.66h-10.367q-.005.143-.004.274.001 1.4.23 2.375.226.937.65 1.465h.003c.281.34.668.601 1.16.773.516.18 1.153.274 1.903.274h6.425v2.656h-6.636a18 18 0 0 1-2.13-.121 8 8 0 0 1-1.187-.242l-.011-.004a6 6 0 0 1-.688-.246 7.2 7.2 0 0 1-1.644-1.004 6.5 6.5 0 0 1-1.25-1.313 7.3 7.3 0 0 1-.883-1.64l-.004-.012h-.004a7.773 7.773 0 0 1-.336-1.062c-.238-.942-.36-2.005-.36-3.18q-.001-2.374.52-4.145c.352-1.203.883-2.187 1.59-2.969l.008-.007a6.394 6.394 0 0 1 1.383-1.129c1.324-.797 3.035-1.2 5.132-1.2h6.5v2.665Zm29.336-2.293v7.425h6.043v-7.797h4.418v18.274h-4.418v-7.817h-6.043v7.817h-4.414V18.148h4.414Zm-49.45 15.246h10.063v2.656h-15.54v-2.817L89.2 20.813H78.633v-2.665h15.539V21ZM70.645 20.813q-1.074.002-1.825.332-.733.323-1.18.968v.004l-.003.004c-.082.117-.16.254-.235.399a5 5 0 0 0-.203.48c-.332.91-.5 4.328-.5 5.879q.001 1.4.23 2.375c.15.625.364 1.113.653 1.465.277.34.668.601 1.16.773.516.18 1.153.274 1.903.274h6.425v2.656h-6.636a18 18 0 0 1-2.13-.121 8 8 0 0 1-1.19-.242l-.009-.004a5 5 0 0 1-.347-.114 12 12 0 0 1-.34-.132v-.004a7 7 0 0 1-1.648-1 6.5 6.5 0 0 1-1.247-1.313 7.3 7.3 0 0 1-.886-1.64l-.004-.012c-.067-.172-.133-.344-.184-.516a11 11 0 0 1-.156-.547c-.238-.941-.36-2.004-.36-3.18q.002-2.373.52-4.144c.356-1.203.887-2.187 1.594-2.969l.004-.007q.294-.322.652-.61a6 6 0 0 1 .734-.52c1.325-.796 3.036-1.199 5.133-1.199h6.5v2.665Zm50.097 0q-1.073.002-1.824.332-.733.323-1.18.968v.004l-.008.004a4 4 0 0 0-.437.879c-.328.91-.496 4.328-.496 5.879q.001 1.4.23 2.375.223.937.649 1.465h.004c.28.34.668.601 1.16.773.515.18 1.148.274 1.902.274h6.426v2.656h-6.637c-.691 0-1.308-.031-1.867-.09-.086-.008-.168-.02-.262-.031a7.6 7.6 0 0 1-1.187-.242h-.004l-.008-.004a5 5 0 0 1-.348-.114 12 12 0 0 1-.34-.132 7.2 7.2 0 0 1-1.648-1.004 6.6 6.6 0 0 1-1.246-1.313 7.3 7.3 0 0 1-.887-1.64l-.004-.012a7 7 0 0 1-.183-.516 8 8 0 0 1-.156-.547c-.239-.941-.356-2.004-.356-3.18q-.001-2.373.52-4.144c.351-1.203.882-2.187 1.59-2.969l.003-.007a6.4 6.4 0 0 1 1.387-1.13c1.324-.796 3.035-1.199 5.13-1.199h6.503v2.665z" style="stroke:none;fill-rule:evenodd;fill:#2756a2;fill-opacity:1"/><g clip-path="url(#b)"><path d="M85.477 40.168h9.074q1.641 0 2.847.328 1.242.341 2.043 1.027l.012.012c.149.13.29.274.422.422a4 4 0 0 1 .355.488c.547.867.825 1.989.825 3.36 0 .703-.086 1.347-.246 1.925a5 5 0 0 1-.739 1.579l-.007.007c-.098.141-.2.266-.297.371-.098.114-.215.223-.332.333h.004q-.723.644-1.731.953l4.125 6.914.332.554H97.16l-.105-.187-3.766-6.715h-3.766v6.902h-4.418V40.168Zm8.203 2.66h-4.157v6.07h4.157c1.148 0 1.933-.238 2.347-.714l.004-.004h-.004q.083-.093.141-.192.064-.098.121-.226h.004q.293-.675.293-1.91 0-1.688-.543-2.32c-.188-.227-.477-.395-.848-.516q-.608-.188-1.515-.188m72.754.184c-1.813 0-3.336.781-3.309 2.617.012.867.484 2.305 2.555 2.332h4.37c1.02 0 2.067.09 3.04.41q.914.3 1.504.828c1.21 1.082 1.406 1.969 1.406 3.625v.008c-.004 1.566-.375 3.188-1.61 4.246-1.05.906-2.683 1.363-4.89 1.363h-10.184v-2.824h9.325c2.047 0 2.8-1.36 2.847-2.293.063-1.238-.468-2.703-2.558-2.703h-4.121c-1.59 0-3.414-.219-4.664-1.297h-.004l-.012-.011c-.941-.82-1.52-2.168-1.52-3.41 0-1.587.356-3.27 1.602-4.36 1.312-1.148 3.246-1.375 4.926-1.375h10.015v2.844Zm-42.012-2.844h4.879l.105.184 6.48 11.37-.16-11.187-.003-.367h4.507v18.273h-4.859l-.11-.187-6.84-12.043.153 11.86.004.37h-4.52V40.168Zm-3.149 18.273h-4.218V40.168h4.586v18.273ZM106.977 58h-.008v-.004Zm3.753.441q-1.23-.002-2.16-.109c-.097-.012-.199-.023-.297-.039h-.003c-.563-.078-1.114-.2-1.637-.426a4 4 0 0 1-.344-.16c-.789-.41-1.52-1.062-2.059-1.789a5.4 5.4 0 0 1-.832-1.625 8 8 0 0 1-.285-1.45c-.058-.55-.09-1.179-.09-1.878V40.168h4.415V51.82c0 .5.015.93.035 1.293.074 1.184.449 2.024 1.617 2.426.629.215 1.336.242 1.992.242l4.711-.004v2.664Zm-28.46 0h-4.22V40.168h4.583v18.273ZM65.316 40.168h4.153l.094.219 7.484 17.547.215.507h-4.907l-.09-.238-1.902-4.926h-6.37l-1.845 4.926-.093.238h-4.711l.215-.507 7.425-17.543.094-.223Zm1.82 4.855-2.124 5.598 4.324-.012Zm83.528-2.195c-.71 0-1.324.11-1.828.332a2.8 2.8 0 0 0-1.172.965v.004l-.008.008c-.082.117-.164.25-.234.398a5 5 0 0 0-.207.48c-.176.489-.305 1.692-.387 2.946h10.262v2.66h-10.371v.274c0 .933.078 1.726.226 2.375q.229.938.657 1.464.418.51 1.16.774.773.272 1.898.273l6.43-.004v2.664h-6.637c-.687 0-1.312-.035-1.863-.093-.082-.012-.176-.02-.266-.035a7.7 7.7 0 0 1-1.187-.239l-.004-.004h-.012a9 9 0 0 1-.684-.25 7.2 7.2 0 0 1-1.648-1v-.004a6.6 6.6 0 0 1-1.246-1.304 7.6 7.6 0 0 1-.887-1.645l-.004-.015c-.066-.172-.132-.344-.183-.512a12 12 0 0 1-.156-.547c-.239-.945-.356-2.008-.356-3.18q0-2.373.516-4.148.532-1.802 1.593-2.969l.004-.004a6.4 6.4 0 0 1 1.387-1.133c1.324-.797 3.031-1.191 5.133-1.191h6.5v2.66z" style="stroke:none;fill-rule:evenodd;fill:#2756a2;fill-opacity:1"/></g></svg>
